X:1
T:Title
%%score { 1 | 2 }
L:1/8
M:6/8
K:Ab
V:1 treble nm="Grand Piano"
V:2 bass 
V:1
 z3 z2[Q:1/4=81] [CE] | [CE][DF][CE] [Ec]2 [=EB] | [FA][DF][DA] [CE]2 [EA] | GGG GAB | %4
[M:5/8] [CA]-[CA]- [CA]3 |[M:1/8] [CE] |[M:3/4] [CE][DF] [CE] [Ec]2 [=EB] | %7
 [FA][DF] [DA] [CE]2 [EA] | GG GG cB |[M:5/8] [CA]-[CA]- [CA]3 |[M:1/8] E |[M:3/4] dd d d2 E | %12
 [Ec][Ec] [Ec] [Ec]2 [Ec] | BB B[=DB] [DA][Dc] |[M:5/8] [DB]-[DB]- [DB]3 |[M:1/8] [DE] | %16
[M:3/4] [CE][DF] [CE] [Ec]2 [=EB] | [FA][DF] [DA] [CE]2 [CA] | GG GG cB |[M:5/8] [CA]-[CA]- [CA]3 | %20
[M:1/8] [CE] |[M:3/4] [A,C]2 [CE] [CA]2 B | c4- c[_Gc] | [Fd] [Fd]2 [FA]2 [DF] | %24
[M:5/8] [CE]-[CE]- [CE]3 |[M:1/8] E |[M:3/4] A2 ce c2 |[M:7/8] [GB] c2 [Fd]3 [FB] | %28
[M:3/4] A G2 c2 B |[M:5/8] [CA]-[CA]- [CA]3 |] %30
V:2
 z3 z2 [A,,A,] | [A,,A,][A,,A,][A,,A,] [A,,A,]2 [C,A,] | [D,A,][D,A,][D,F,] [A,,A,]2 [C,A,] | %3
 [E,B,D][E,B,D][E,B,D] [E,B,D][E,A,C][E,G,D] |[M:5/8] [A,,A,]-[A,,A,]- [A,,A,]3 |[M:1/8] [A,,A,] | %6
[M:3/4] [A,,A,][A,,A,] [A,,A,] [A,,A,]2 [C,A,] | [D,A,][D,A,] [D,F,] [A,,A,]2 [C,A,] | %8
 [E,B,D][E,B,D] [E,B,D][E,B,D] [E,A,E][E,G,D] |[M:5/8] [A,,A,]-[A,,A,]- [A,,A,]3 |[M:1/8] [E,G,] | %11
[M:3/4] [E,G,E][E,G,E] [E,G,E] [E,G,E]2 [E,G,] | [A,,A,][A,,A,] [A,,A,] [A,,A,]2 [A,,A,] | %13
 [E,G,E][E,G,E] [E,G,E][B,,F,] [B,,F,][B,,A,] |[M:5/8] [E,G,]-[E,G,]- [E,G,]3 |[M:1/8] [E,G,] | %16
[M:3/4] [A,,A,][A,,A,] [A,,A,] [A,,A,]2 [C,A,] | [D,A,][D,A,] [D,F,] [A,,A,]2 [A,,A,] | %18
 [E,B,D][E,B,D] [E,B,D][E,B,D] [E,A,E][E,G,D] |[M:5/8] [A,,A,]-[A,,A,]- [A,,A,]3 |[M:1/8] [A,,A,] | %21
[M:3/4] [A,,E,]2 [A,,A,] [A,,A,]2 [E,G,E] | [A,E]4- [A,E][A,,A,] | [D,A,] [D,A,]2 [D,D]2 [D,A,] | %24
[M:5/8] [A,,A,]-[A,,A,]- [A,,A,]3 |[M:1/8][K:treble] [A,C] |[M:3/4] [A,CE]2 [A,EA][A,CA] [A,EA]2 | %27
[M:7/8][K:bass] [E,E] [A,_G]2 [D,A,]3 [D,D] |[M:3/4] [E,CE] [E,B,E]2 [E,A,E]2 [E,G,D] | %29
[M:5/8] [A,,A,]-[A,,A,]- [A,,A,]3 |] %30

